src/images/common/InstagramLogo.svg

<svg fill="none" height="24" viewBox="0 0 24 24" width="24" xmlns="http://www.w3.org/2000/svg"><path d="m12 7.5c-.89 0-1.76.26392-2.50007.75839-.74002.49446-1.31679 1.19727-1.65739 2.01951-.34059.8223-.42971 1.7271-.25607 2.6.17363.8729.60221 1.6747 1.23155 2.3041.62934.6293 1.43118 1.0579 2.30408 1.2315.8729.1737 1.7777.0846 2.6-.256.8222-.3406 1.525-.9174 2.0195-1.6574.4945-.7401.7584-1.6101.7584-2.5001-.0012-1.1931-.4757-2.33697-1.3194-3.18061-.8436-.84364-1.9875-1.31815-3.1806-1.31939zm0 7.5c-.5933 0-1.1734-.1759-1.6667-.5056-.49336-.3296-.87788-.7982-1.10494-1.3463-.22706-.5482-.28647-1.1514-.17072-1.7334.11576-.5819.40148-1.1165.82104-1.53602.41952-.41956.95412-.70528 1.53602-.82104.582-.11575 1.1852-.05634 1.7334.17072.5481.22706 1.0167.61158 1.3463 1.10494.3297.4933.5056 1.0734.5056 1.6667 0 .7956-.3161 1.5587-.8787 2.1213s-1.3257.8787-2.1213.8787zm4.5-12.75h-9c-1.39193.00149-2.72642.55509-3.71067 1.53933-.98424.98425-1.53784 2.31874-1.53933 3.71067v9c.00149 1.3919.55509 2.7264 1.53933 3.7107.98425.9842 2.31874 1.5378 3.71067 1.5393h9c1.3919-.0015 2.7264-.5551 3.7107-1.5393.9842-.9843 1.5378-2.3188 1.5393-3.7107v-9c-.0015-1.39193-.5551-2.72642-1.5393-3.71067-.9843-.98424-2.3188-1.53784-3.7107-1.53933zm3.75 14.25c0 .9946-.3951 1.9484-1.0984 2.6516-.7032.7033-1.657 1.0984-2.6516 1.0984h-9c-.99456 0-1.94839-.3951-2.65165-1.0984-.70326-.7032-1.09835-1.657-1.09835-2.6516v-9c0-.99456.39509-1.94839 1.09835-2.65165s1.65709-1.09835 2.65165-1.09835h9c.9946 0 1.9484.39509 2.6516 1.09835.7033.70326 1.0984 1.65709 1.0984 2.65165zm-2.25-9.375c0 .2225-.066.44001-.1896.62502-.1236.185-.2993.3292-.5049.41434-.2055.08515-.4317.10743-.65.06402-.2182-.0434-.4187-.15055-.576-.30788-.1573-.15734-.2645-.35779-.3079-.57602s-.0211-.44443.064-.65c.0852-.20557.2294-.38127.4144-.50488.185-.12362.4025-.1896.625-.1896.2984 0 .5845.11853.7955.3295.211.21098.3295.49713.3295.7955z" fill="#fff"/></svg>

<svg width="24" height="24" viewBox="0 0 24 24" fill="none" xmlns="http://www.w3.org/2000/svg">
<path d="M12 7.5C11.11 7.5 10.24 7.76392 9.49993 8.25839C8.75991 8.75285 8.18314 9.45566 7.84254 10.2779C7.50195 11.1002 7.41283 12.005 7.58647 12.8779C7.7601 13.7508 8.18868 14.5526 8.81802 15.182C9.44736 15.8113 10.2492 16.2399 11.1221 16.4135C11.995 16.5872 12.8998 16.4981 13.7221 16.1575C14.5443 15.8169 15.2471 15.2401 15.7416 14.5001C16.2361 13.76 16.5 12.89 16.5 12C16.4988 10.8069 16.0243 9.66303 15.1806 8.81939C14.337 7.97575 13.1931 7.50124 12 7.5ZM12 15C11.4067 15 10.8266 14.8241 10.3333 14.4944C9.83994 14.1648 9.45542 13.6962 9.22836 13.1481C9.0013 12.5999 8.94189 11.9967 9.05764 11.4147C9.1734 10.8328 9.45912 10.2982 9.87868 9.87868C10.2982 9.45912 10.8328 9.1734 11.4147 9.05764C11.9967 8.94189 12.5999 9.0013 13.1481 9.22836C13.6962 9.45542 14.1648 9.83994 14.4944 10.3333C14.8241 10.8266 15 11.4067 15 12C15 12.7956 14.6839 13.5587 14.1213 14.1213C13.5587 14.6839 12.7956 15 12 15ZM16.5 2.25H7.5C6.10807 2.25149 4.77358 2.80509 3.78933 3.78933C2.80509 4.77358 2.25149 6.10807 2.25 7.5V16.5C2.25149 17.8919 2.80509 19.2264 3.78933 20.2107C4.77358 21.1949 6.10807 21.7485 7.5 21.75H16.5C17.8919 21.7485 19.2264 21.1949 20.2107 20.2107C21.1949 19.2264 21.7485 17.8919 21.75 16.5V7.5C21.7485 6.10807 21.1949 4.77358 20.2107 3.78933C19.2264 2.80509 17.8919 2.25149 16.5 2.25ZM20.25 16.5C20.25 17.4946 19.8549 18.4484 19.1516 19.1516C18.4484 19.8549 17.4946 20.25 16.5 20.25H7.5C6.50544 20.25 5.55161 19.8549 4.84835 19.1516C4.14509 18.4484 3.75 17.4946 3.75 16.5V7.5C3.75 6.50544 4.14509 5.55161 4.84835 4.84835C5.55161 4.14509 6.50544 3.75 7.5 3.75H16.5C17.4946 3.75 18.4484 4.14509 19.1516 4.84835C19.8549 5.55161 20.25 6.50544 20.25 7.5V16.5ZM18 7.125C18 7.3475 17.934 7.56501 17.8104 7.75002C17.6868 7.93502 17.5111 8.07922 17.3055 8.16436C17.1 8.24951 16.8738 8.27179 16.6555 8.22838C16.4373 8.18498 16.2368 8.07783 16.0795 7.9205C15.9222 7.76316 15.815 7.56271 15.7716 7.34448C15.7282 7.12625 15.7505 6.90005 15.8356 6.69448C15.9208 6.48891 16.065 6.31321 16.25 6.1896C16.435 6.06598 16.6525 6 16.875 6C17.1734 6 17.4595 6.11853 17.6705 6.3295C17.8815 6.54048 18 6.82663 18 7.125Z" fill="white"/>
</svg>
